X:123
T:Farthest Hill
M:3/4
L:1/8
C:Frederick E. Wilson Mar 2004
R:Waltz
K:Am
E2|"Am"A3Bc2|"Em"g2e3d|"F"c3de2|"Am"dc A2 "G"G2|
"Am"A3Bc2|"Em"g2e3g|"F"a3ge2|"G"d4cd|
"C"e3ga2|"Em"ged2c2|"F"c2d2e2|"G"dB G^F GB|
"Am"A3Bc2|"G"BAG2E2|"Am"G2(A4|A4):|:
G2|"C"c3BA2|"Em"G2E2G2|"F"A2G2E2|"G"D4CD|
"C"E3GA2|"Am"GED2C2|"Dm"D4CD|"G"E4D2|
"C"E2G2A2|"Am"c2A2c2|"F"d3cd2|"G"e4ed|
"C"ed cB AG|"F"AB c2e2|"Dm"d4c2|"Am"A4:|
